!!!!SEGMENT: pl-kk--kk-i-357--001_lukaszewicz-maciej--vexila-regis-prodeunt.krn
!!!cenid: 16xx:725
!!!COM: Łukaszewicz, Maciej
!!!COM-rismID: pe30097723
!!!CDT: <1668->1680
!!!CNT: Polish
!!!OTL: Vexila regis prodeunt
!!!PDT: 1650
!!!AGN: Sacred
!!!SMS-siglum: PL-Kk
!!!SMS-shelfmark: Kk.I.357
!!!SMS-shelfwork: 001 W
!!!SMS-variant: Canto. PL-Kk Kk.I.357:0004-0005; Baſso. PL-Kk Kk.I.357:0010-0011
!!!SMS-altvar: [Canto] PL-Kk Kk.I.357:0012; [Baſso] PL-Kk Kk.I.357:0013
!!!NIFC-rismSourceID: 1001134841
!!!NIFC-islandoraID: pl-kk:5939
!!!URL-pdf-islandora: https://repozytorium.nifc.pl/islandora/object/pl-kk%3A5939/datastream/PDF/view
!!!URL-scan: https://polish.musicsources.pl/pl/lokalizacje/galeria/rekopisy/5973 @EN{Scan on Polish Music Herritage in Open Access Website} @PL{Skany w portalu Dziedzictwo Muzyki Polskiej w otwartym dostępie}
!!!ONB-nifc: UWAGA: utwory w zbiorze: 1. Vexila regis prodeunt, 2. Lustra sex.
!!!AIN: 1 alto 1 empty 1 tenor 1 vox
!!!key:
**kern	**text	**text	**kern	**text	**kern	**text	**kern	**text
*part4	*part4	*part4	*part3	*part3	*part2	*part2	*part1	*part1
*staff4	*staff4	*staff4	*staff3	*staff3	*staff2	*staff2	*staff1	*staff1
*Iempty	*	*	*Itenor	*	*Ialto	*	*Ivox	*
*I"Baſso.	*	*	*I"Tenore	*	*I"Alto.	*	*I"Canto.	*
*I'B	*	*	*I'T	*	*I'A	*	*I'S	*
*clefF4	*	*	*clefC4	*	*clefC3	*	*clefC1	*
*k[b-]	*	*	*k[b-]	*	*k[b-]	*	*k[b-]	*
*d:	*	*	*d:	*	*d:	*	*d:	*
*M3/1	*	*	*M3/1	*	*M3/1	*	*M3/1	*
=1	=1	=1	=1	=1	=1	=1	=1	=1
!LO:TX:t=P:problem=znaki[B- BB-]	!	!	!	!	!	!	!	!
1D	1.Ve-	Ar-	1d	1.Ve-	1f	1.Ve-	1a	1.Ve-
1D	-xil-	-bor	1d	-xil-	1f	-xil-	1fn	-xil-
1AA	-la	de-	1c	-la	1a	-la	1e	-la
=2	=2	=2	=2	=2	=2	=2	=2	=2
!	!	!	!LO:N:acc=#	!	!	!	!	!
0GG	Re-	-co-	0Bn	Re-	1.d	Re-	0g	Re-
*	*	*	*	*	*2\right	*	*	*
.	.	.	.	.	2e\	.	.	.
1D	-gis	-ra	1A	-gis	2f\	-gis	1f	-gis
.	.	.	.	.	2d\	.	.	.
=3	=3	=3	=3	=3	=3	=3	=3	=3
1.AA	pro-	ful-	1.A	pro-	1.d	pro-	1.e	pro-
2AA/	-de-	-gi-	2A/	-de-	2c#X\	-de-	2e/	-de-
!LO:SIC:v:l:s=-unt	!	!	!	!	!	!	!	!
1D	-runt	-da	1A	-unt	1c#	-unt	1e	-unt
=4	=4	=4	=4	=4	=4	=4	=4	=4
0D	ful-	orna-	1r	.	1r	.	0a	ful-
.	.	.	1d	ful-	1f#X	ful-	.	.
!LO:N:acc=#	!	!	!	!	!	!	!LO:N:acc=#	!
1BBn	-get	-ta	1d	-get	1g#X	-get	1bn	-get
=5	=5	=5	=5	=5	=5	=5	=5	=5
1AA	Cru-	Re-	(1c	Cru-	1a	Cru-	1cc	Cru-
1FF#X	-cis	-gis	1A)	.	1a	-cis	1cc	-cis
1GG	My-	Pur-	1B-	-cis	0g	My-	1b-X	My-
=6	=6	=6	=6	=6	=6-	=6	=6	=6
1C	-ste-	.	1e-X	My-	.	.	1b-	-ste-
1.D	.	-pu-	1.d	-ste-	1.f	-ste-	1.a	.
*	*	*	*2\right	*	*	*	*2\right	*
2D/	-ri-	.	2c\	-ri-	2f#X\	-ri-	2a\	-ri-
=7	=7	=7	=7	=7	=7	=7	=7	=7
!	!	!	!LO:N:acc=#	!	!	!	!	!
0.GG	-um	-ra	0.Bn	-um	0.g	-um	0.g	-um
!	!	!	!	!	!	!	!LO:LB:g=original	!
=8	=8	=8	=8	=8	=8	=8	=8	=8
1BB-X	qua	e-	1B-	qua	1f	qua	1dd	qua
1F	vi-	-lec-	1A	vi-	1a	vi-	1cc	vi-
1G	-ta	-ta	(2B-\	-ta	1g	-ta	1b-X	-ta
.	.	.	2c\)	.	.	.	.	.
!	!	!	!LO:LB:g=original	!	!LO:LB:g=original	!	!	!
=9	=9	=9	=9	=9	=9	=9	=9	=9
0D	mor-	di-	0d	mor-	0f	mor-	0a	mor-
1AA	-tem	-gno	1c	-tem	1f	-tem	1cc	-tem
!LO:LB:g=original	!	!	!	!	!	!	!	!
=10	=10	=10	=10	=10	=10	=10	=10	=10
!	!	!	!	!	!LO:SIC:v:l:s=per-	!	!	!
1BB-	per-	sti-	1d	per-	0f	pro-	1g	per-
1.C	.	.	1.c	.	.	.	1.g	-tu-
.	.	.	.	.	1e	-tu-	.	.
2C/	-tu-	-pi-	2B-\	-tu-	.	.	2f/	.
=11	=11	=11	=11	=11	=11	=11	=11	=11
!	!	!	!LO:TX:t=P:global:problem=oddech jako rozdzielacz słów	!	!	!	!LO:TX:t=P:global:problem=oddech jako rozdzielacz słów	!
0F	-lit	-te	0A,<	-lit,	0f	-lit	0f,<	-lit,
1F#X	et	tam	1A	et	1d	et	1a	et
=12	=12	=12	=12	=12	=12	=12	=12	=12
0G	mor-	sa-	0G	mor-	0d	mor-	0b-	mor-
1D	-te	-cra	1A	-te	1d	-te	1f	-te
=13	=13	=13	=13	=13	=13	=13	=13	=13
1AA	vi-	mem-	1A	vi-	1c#X	vi-	1e	vi-
1AA	-tam	-bra	1A	-tam	1c#	-tam	1e	-tam
1F	et	tam	1A	et	1d	et	1a	et
=14	=14	=14	=14	=14	=14	=14	=14	=14
1G	mor-	.	1B-	mor-	1d	mor-	1.d	mor-
1F	-te	san-	1A	-te	1f	-te	.	.
.	.	.	.	.	.	.	2d/	-te
1E	vi-	-cra	1G	vi-	1c#X	vi-	1g	vi-
=15	=15	=15	=15	=15	=15	=15	=15	=15
1D	-tam	mem-	1A	-tam	1d	-tam	1f	-tam
1.AA	pro-	-bra	1.A	pro-	1.e	pro-	1.e	pro-
2AA/	-tu-	tan-	2G/	-tu-	2c#X/	-tu-	2e/	-tu-
=16	=16	=16	=16	=16	=16	=16	=16	=16
[0.D;	-lit	-ge-	0.A;	-lit.	0.d;	-lit.	0.d;	-lit.
=17	=17	=17	=17	=17	=17	=17	=17	=17
0.D]	.	-re	0.ryy	.	0.ryy	.	0.ryy	.
!	!	!	!LO:LB:g=original	!	!LO:LB:g=original	!	!LO:LB:g=original	!
=18||	=18||	=18||	=18||	=18||	=18||	=18||	=18||	=18||
*M3/1	*	*	*M3/1	*	*M3/1	*	*M3/1	*
1B-	2.Quae	Im-	1d	2.Quae	1f	2.Quae	1b-	2.Quae
1B-	vul-	-ple-	1d	vul-	1f	vul-	1b-	vul-
1A	-ne-	-ta	1c	-ne-	1f	-ne-	1cc	-ne-
=19	=19	=19	=19	=19	=19	=19	=19	=19
0B-	-ra-	sunt	0d	-ra-	0f	-ra-	0b-	-ra-
1F	-ta	quae	1c	-ta	1f	-ta	1a	-ta
!LO:LB:g=original	!	!	!	!	!	!	!	!
=20	=20	=20	=20	=20	=20	=20	=20	=20
1.C	lan-	con-	1.c	lan-	1.e	lan-	1.g	lan-
2C/	-ce-	-ci-	2c\	-ce-	2e\	-ce-	2g/	-ce-
1C	-ae	-nit	1c	-ae	1e	-ae	1g	-ae
=21	=21	=21	=21	=21	=21	=21	=21	=21
1AA	mu-	Da-	1c#X	mu-	1e	mu-	1a	mu-
1AA	-cro-	-vid	1c#	-cro-	1e	-cro-	1a	-cro-
1AA	-ne	fi	1c#	-ne	1e	-ne	1a	-ne
=22	=22	=22	=22	=22	=22	=22	=22	=22
1.D	di-	.	1.d	di-	2f\	di-	1.a	di-
.	.	.	.	.	2e\	.	.	.
.	.	.	.	.	2f\	.	.	.
*2\right	*	*	*	*	*	*	*	*
2E\	.	.	4c\	.	2g\	.	2g/	.
.	.	.	4B-\	.	.	.	.	.
1F	.	.	1A	.	1a	-ro	1f	.
=23	=23	=23	=23	=23	=23	=23	=23	=23
1BB-	-ro	.	1d,<	-ro,	1g	cri-	1b-,<	-ro,
1.C	cri-	.	1.c	cri-	1.g	.	1.g	cri-
2C/	-mi-	.	2c\	-mi-	2f\	-mi-	2g/	-mi-
=24	=24	=24	=24	=24	=24	=24	=24	=24
!LO:TX:t=P:global:problem=oddech jako rozdzielacz słów	!	!	!	!	!	!	!	!
0FF,<	-num,	.	0c,<	-num,	0f	-num	0a,<	-num,
1F	ut	.	1c	ut	1a	ut	1cc	ut
=25	=25	=25	=25	=25	=25	=25	=25	=25
0C#X	nos	.	0e	nos	0a	nos	0a	nos
1C#	la-	.	1e	la-	1e	la-	1a	la-
!	!	!	!LO:LB:g=original	!	!LO:LB:g=original	!	!LO:LB:g=original	!
=26	=26	=26	=26	=26	=26	=26	=26	=26
0D	-va-	.	0d	-va-	0f	-va-	0a	-va-
1BB-X	-ret	.	1d	-ret	1g	-ret	1g	-ret
=27	=27	=27	=27	=27	=27	=27	=27	=27
1.AA	sor-	.	1.c#X	sor-	1.e	sor-	1.a	sor-
2AA/	-di-	.	2c#\	-di-	2e\	-di-	2a\	-di-
1AA	-bus	.	2c#\	-bus	1e	-bus	1a	-bus
.	.	.	2e\	ma-	.	.	.	.
=28	=28	=28	=28	=28	=28	=28	=28	=28
!	!	!	!LO:N:acc=-	!	!	!	!	!
1A	ma-	.	1cn	-na-	1r	.	1r	.
1F	-na-	.	2A\	-vit	1a	ma-	1r	.
.	.	.	2A\	ma-	.	.	.	.
2D\	-vit	.	1.d	-na-	1f	-na-	1a	ma-
2D\	ma-	.	.	.	.	.	.	.
!LO:LB:g=original	!	!	!	!	!	!	!	!
=29	=29	=29	=29	=29	=29	=29	=29	=29
!	!	!	!	!	!	!	!LO:N:acc=#	!
1.G	-na-	.	.	.	2d\	-vit	1bn	-na-
.	.	.	2c\	.	2d\	ma-	.	.
.	.	.	2B-\	.	1.g	-na-	1g	-vit
2F\	.	.	2A\	.	.	.	.	.
2E\	.	.	1G	.	.	.	1b	ma-
2D\	.	.	.	.	2f\	.	.	.
=30	=30	=30	=30	=30	=30	=30	=30	=30
1C	.	.	1G	-vit	2e\	.	1.cc	-na-
.	.	.	.	.	2d\	.	.	.
1C,<	-vit,	.	1G	ma-	1c	.	.	.
.	.	.	.	.	.	.	2b-\	.
1C	ma-	.	1.c	-na-	1c	-vit	2a\	.
.	.	.	.	.	.	.	2g\	.
=31	=31	=31	=31-	=31	=31	=31	=31	=31
1.F	-na-	.	.	.	1c	ma-	2a\	.
.	.	.	2B-\	.	.	.	2g\	.
!	!	!	!	!	!LO:N:vis=2.	!	!	!
.	.	.	2A\	.	1.f	-na-	1f	.
2E\	.	.	2G/	.	.	.	.	.
2D\	.	.	2A\	.	.	.	1f	-vit
!	!	!	!	!	!LO:TX:a:t=P:problem=skreślona cauda	!	!	!
2C\	.	.	2A\	-vit	2e\	.	.	.
=32	=32	=32	=32	=32	=32-	=32	=32	=32
0BB-	.	.	1d	ma-	2d\	.	1r	.
.	.	.	.	.	2c\	.	.	.
.	.	.	1B-	-na-	1d	.	1r	.
1FF#X	-vit	.	1A	-vit	1d	-vit	1dd	ma-
=33	=33	=33	=33	=33	=33	=33	=33	=33
!	!	!	!	!	!	!	!LO:TX:t=P:problem=♭ above	!
(1.GG	un-	.	2B-\	un-	0g	un-	1b-X	-na-
.	.	.	2A\	.	.	.	.	.
.	.	.	2B-\	-da	.	.	2b-\	-vit
2AA/)	.	.	2c\	.	.	.	2b-\	un-
1BB-	-da	.	1d	.	1f	-da	1b-	-da
!	!	!	!LO:LB:g=original	!	!	!	!	!
=34	=34	=34	=34	=34	=34	=34	=34	=34
1GG	et	.	1d	San-	1e	san-	1b-	et
0AA	san-	.	1d	-gui-	0e	-gui-	1.a	san-
.	.	.	1c#X	.	.	.	.	.
.	.	.	.	.	.	.	2a\	-gui-
=35	=35	=35	=35	=35	=35	=35	=35	=35
[0.D	-gui-	.	0.d;	-ne.	0.d;	-ne,	0.a;	-ne
=36	=36	=36	=36	=36	=36	=36	=36	=36
0.D;]	-ne	.	0.ryy	.	0.ryy	.	0.ryy	.
!LO:LB:g=original	!	!	!	!	!LO:LB:g=original	!	!LO:LB:g=original	!
=37||	=37||	=37||	=37||	=37||	=37||	=37||	=37||	=37||
*M3/1	*	*	*M3/1	*	*M3/1	*	*M3/1	*
1B-	3.Im-	.	1d	3.Im-	1f	3.Im-	1b-	3.Im-
1B-	-ple-	.	1d	-ple-	1f	-ple-	1b-	-ple-
1A	-ta	.	1c	-ta	1f	-ta	1cc	-ta
=38	=38	=38	=38	=38	=38	=38	=38	=38
0B-	sunt	.	0d	sunt	0f	s(un)t	0b-	sunt
1F	quae	.	1c	quae	1f	quae	1a	quae
=39	=39	=39	=39	=39	=39	=39	=39	=39
1.C	con-	.	1.c	con-	1.e	con-	1.g	con-
2C/	-ci-	.	2c\	-ci-	2e\	-ci-	2g/	-ci-
1C	-nit	.	1c	-nit	1e	-nit	1g	-nit
=40	=40	=40	=40	=40	=40	=40	=40	=40
1AA	Da-	.	1c#X	Da-	1e	Da-	1a	Da-
1AA	-vid	.	1c#	-vid	1e	-vid	1a	-vid
1AA	fi-	.	1c#	fi-	1e	fi-	1a	fi-
=41	=41	=41	=41	=41	=41	=41	=41	=41
1.D	-de-	.	1.d	-de-	2f\	-de-	1.a	-de-
.	.	.	.	.	2e\	.	.	.
.	.	.	.	.	2f\	.	.	.
2E\	.	.	4c\	.	2g\	.	2g/	.
.	.	.	4B-\	.	.	.	.	.
1F	.	.	1A	.	1a	.	1f	.
=42	=42	=42	=42	=42	=42	=42	=42	=42
1BB-,<	-li,	.	1d	-li	1g	-li	1b-,<	-li
1.C	car-	.	1.c	car-	1.g	car-	1.g	car-
2C/	-mi-	.	2c\	-mi-	2f\	-mi-	2g/	-mi-
=43	=43	=43	=43	=43	=43	=43	=43	=43
0FF	-ne	.	0c,<	-ne	0f	-ne	0a	-ne
1F	di-	.	1c	di-	1a	di-	1cc	di-
!	!	!	!LO:LB:g=original	!	!	!	!	!
=44	=44	=44	=44	=44	=44	=44	=44	=44
0C#X	-cen-	.	0e	-cen-	0a	-cen-	0a	-cen-
1C#	-do	.	1e	-do	1e	-do	1a	-do
=45	=45	=45	=45	=45	=45	=45	=45	=45
0D	na-	.	0d	na-	0f	na-	0a	na-
1BB-X	-ti-	.	1d	-ti	1g	-ti	1g	-ti-
!LO:LB:g=original	!	!	!	!	!LO:LB:g=original	!	!	!
=46	=46	=46	=46	=46	=46	=46	=46	=46
1.AA	-o-	.	1.c#X	o-	1.e	o-	1.a	-o-
2AA/	-ni-	.	2c#\	-ni-	2e\	-ni-	2a\	-ni-
1AA	-bus	.	2c#\	-bus	1e	-bus	1a	-bus
.	.	.	2e\	Re-	.	.	.	.
!	!	!	!	!	!	!	!LO:LB:g=original	!
=47	=47	=47	=47	=47	=47	=47	=47	=47
!	!	!	!LO:N:acc=-	!	!	!	!	!
1A	re-	.	1cn	-gna-	1r	.	1r	.
1F	-gna-	.	2A\	-vit	1a	re-	1r	.
.	.	.	2A\	re-	.	.	.	.
2D\	-vit	.	1.d	-gna-	1f	-gna-	1a	re-
2D\	re-	.	.	.	.	.	.	.
=48	=48	=48	=48	=48	=48	=48	=48	=48
!	!	!	!	!	!	!	!LO:N:acc=#	!
1.G	-gna-	.	.	.	2d\	-vit	1bn	-gna-
.	.	.	2c\	.	2d\	re-	.	.
.	.	.	2B-\	.	1.g	-gna	1g	-vit
2F\	.	.	2A\	.	.	.	.	.
2E\	.	.	1G	.	.	.	1b	re-
2D\	.	.	.	.	2f\	.	.	.
=49	=49	=49	=49	=49	=49	=49	=49	=49
1C	.	.	1G,<	-vit,	2e\	.	1.cc	-gna-
.	.	.	.	.	2d\	.	.	.
1C,<	-vit,	.	1G	re-	1c	-vit	.	.
.	.	.	.	.	.	.	2b-\	.
1C	re-	.	1.c	-gna-	1c	re-	2a\	.
.	.	.	.	.	.	.	2g\	.
=50	=50	=50	=50-	=50	=50	=50	=50	=50
1.F	-gna-	.	.	.	1c	-gna-	2a\	.
.	.	.	2B-\	.	.	.	2g\	.
.	.	.	2A\	.	1.f	.	1f	.
2E\	.	.	2G/	.	.	.	.	.
2D\	.	.	2A\	.	.	.	1f	-vit
2C\	.	.	2A\	-vit	2e\	.	.	.
=51	=51	=51	=51	=51	=51-	=51	=51	=51
0BB-	.	.	1d	re-	2d\	.	1r	.
.	.	.	.	.	2c\	.	.	.
.	.	.	1B-	-gna-	1d	.	1r	.
1FF#X	-vit	.	1A	-vit	1d	-vit	1dd	re-
!	!	!	!LO:LB:g=original	!	!	!	!	!
=52	=52	=52	=52	=52	=52	=52	=52	=52
(1.GG	a	.	2B-\	a	0g	a	1b-X	-gna-
.	.	.	2A\	.	.	.	.	.
.	.	.	2B-\	.	.	.	2b-\	-vit
2AA/)	.	.	2c\	.	.	.	2b-\	a
1BB-	li-	.	1d	Li-	1f	li-	1b-	li-
=53	=53	=53	=53	=53	=53	=53	=53	=53
1GG	-gno	.	1d	-gno	1e	-gno	1b-	-gno
0AA	DE-	.	1d	DE-	0e	DE-	1.a	DE-
.	.	.	1c#X	.	.	.	.	.
.	.	.	.	.	.	.	2a\	.
=54	=54	=54	=54	=54	=54	=54	=54	=54
!	!	!	!	!	!LO:N:vis=0	!	!	!
[0.D	-US.	.	0.d;	-US.	0.d;	-US.	0.a;	-US.
=55	=55	=55	=55	=55	=55	=55	=55	=55
0.D]	.	.	0.ryy	.	0.ryy	.	0.ryy	.
!LO:LB:g=original	!	!	!	!	!LO:LB:g=original	!	!LO:LB:g=original	!
=56||	=56||	=56||	=56||	=56||	=56||	=56||	=56||	=56||
*M3/1	*	*	*M3/1	*	*M3/1	*	*M3/1	*
1D	4.Ar-	.	1d	4.Ar-	1f	4.Ar-	1a	4.Ar-
1D	-bor	.	1d	-bor	1f	-bor	1fn	-bor
1AA	de-	.	1c	de-	1a	de-	1e	de-
=57	=57	=57	=57	=57	=57	=57	=57	=57
!	!	!	!LO:N:acc=#	!	!	!	!	!
0GG	-cora	.	0Bn	-co-	1.d	-co-	0g	-cora
.	.	.	.	.	2e\	-co-	.	.
1D	et	.	1A	-ra	2f\	-ra	1f	et
.	.	.	.	.	2d\	et	.	.
=58	=58	=58	=58	=58	=58	=58	=58	=58
1.AA	ful-	.	1.A	ful-	1.d	ful-	1.e	ful-
2AA/	-gi-	.	2A\	-gi-	2c#X\	-gi-	2e/	-gi-
1D	-da	.	1A	-da	1c#	-da	1e	-da
=59	=59	=59	=59	=59	=59	=59	=59	=59
0D	or-	.	1r	.	1r	.	0a	or-
.	.	.	1d	or-	1f#X	or-	.	.
!LO:N:acc=#	!	!	!	!	!	!	!LO:N:acc=#	!
1BBn	-na-	.	1d	-na-	1g#X	-na-	1bn	-na-
=60	=60	=60	=60	=60	=60	=60	=60	=60
1AA	-ta	.	1c	-ta	1a	-ta	1cc	-ta
1FF#X	re-	.	1A	Re-	1a	Re-	1cc	Re-
1GG	-gis	.	1B-	-gis	0g	-gis	1b-X	-gis
!	!	!	!LO:PB:g=original	!	!	!	!	!
=61	=61	=61	=61	=61	=61-	=61	=61	=61
1C	pur-	.	1e-X	pur-	.	.	1b-	pur-
1.D	.	.	1.d	.	1.f	pur-	1.a	.
2D/	-pu-	.	2c\	-pu-	2f\	-pu-	2a\	-pu-
=62	=62	=62	=62	=62	=62	=62	=62	=62
!	!	!	!LO:N:acc=#	!	!	!	!	!
0.GG	-ra	.	0.Bn	-ra	0.g	-ra	0.g	-ra
=63	=63	=63	=63	=63	=63	=63	=63	=63
1BB-X	e-	.	1B-	e-	1f	e-	1dd	e-
1F	-le-	.	1A	-le-	1a	-lec-	1cc	-lec-
1G	-cta	.	2B-\	-cta	1g	-ta	1b-	-ta
.	.	.	(2c\	.	.	.	.	.
!	!	!	!	!	!LO:PB:g=original	!	!	!
=64	=64	=64	=64	=64	=64	=64	=64	=64
0D	di-	.	0d)	di-	0f	di-	0a	di-
1AA	-gno	.	1c	-gno	1f	-gno	1cc	-gno
!LO:PB:g=original	!	!	!	!	!	!	!LO:PB:g=original	!
=65	=65	=65	=65	=65	=65	=65	=65	=65
1BB-	sti-	.	1d	sti-	0f	sti-	1g	sti-
1.C	-pi-	.	1.c	.	.	.	1.g	-pi-
.	.	.	.	.	1e	-pi-	.	.
2C/	.	.	2B-\	-pi-	.	.	2g/	.
=66	=66	=66	=66	=66	=66	=66	=66	=66
0F	-te	.	0A,<	-te,	0f	-te	0f,<	-te,
1F#X	et	.	1A	tam	1d	tam	1a	tam
=67	=67	=67	=67	=67	=67	=67	=67	=67
0G	mor-	.	0G	S(an)-	0d	S(an)-	0b-	S(an)-
1D	-te	.	1A	-cta	1d	-cta	1f	-cta
=68	=68	=68	=68	=68	=68	=68	=68	=68
1AA	vi-	.	1A	mem-	1c#X	mem-	1e	mem-
1AA,<	-tam	.	1A	-bra	1c#	-bra	1e,<	-bra,
1F	et	.	1A	tam	1d	tam	1a	tam
!	!	!	!LO:LB:g=original	!	!	!	!	!
=69	=69	=69	=69	=69	=69	=69	=69	=69
1G	mo-	.	1B-	San-	1d	S(an)-	1.d	S(an)-
1F	-rte	.	1A	-cta	1f	-cta	.	.
.	.	.	.	.	.	.	2d/	-cta
1E	vi-	.	1G	mem-	1c#X	mem-	1g	mem-
=70	=70	=70	=70	=70	=70	=70	=70	=70
1D	-tam	.	1A	-bra	1d	-bra	1f	-bra
1.AA	pro-	.	1.A	tan-	1.d	tan-	1.e	tan-
2AA/	-tu-	.	2G/	-ge-	2c#X\	-ge-	2e/	-ge-
=71	=71	=71	=71	=71	=71	=71	=71	=71
[0.D	-lit.	.	0.A;	-re	0.d;	-re.	0.d;	-re.
=72	=72	=72	=72	=72	=72	=72	=72	=72
0.D;]	.	.	0.ryy	.	0.ryy	.	0.ryy	.
!LO:LB:g=original	!	!	!	!	!LO:LB:g=original	!	!LO:LB:g=original	!
=73||	=73||	=73||	=73||	=73||	=73||	=73||	=73||	=73||
*M3/1	*	*	*M3/1	*	*M3/1	*	*M3/1	*
1D	5.Be-	.	1d	5.Be-	1f	5.Be-	1a	5.Be-
1D	-a-	.	1d	-a-	1f	-a-	1a	-a-
1F	-ta	.	1c	-ta	1f	-ta	1a	-ta
=74	=74	=74	=74	=74	=74	=74	=74	=74
1.BB-	cu-	.	1.d	cu-	1.d	cu-	1.f	cu-
2AA/	.	.	2c\	.	4e\	.	4g\	.
.	.	.	.	.	4f\	.	4a\	.
1GG	.	.	1B-	-jus	1g	-jus	1b-	.
=75	=75	=75	=75	=75	=75	=75	=75	=75
1AA	-jus	.	1c	bra-	1f	bra-	1a	-jus
1.C	bra-	.	1.c	.	1.f	.	1.g	bra-
2C/	-chi-	.	2c\	-chi-	2e\	-chi-	2g\	-chi-
=76	=76	=76	=76	=76	=76	=76	=76	=76
0F	-js	.	0c	-js	0f	-js	0a	-js
2F\	pre-	.	1F	pre-	2c\	pre-	2.a\	pre-
2F\	-ti-	.	.	.	2c\	-ti-	.	.
.	.	.	.	.	.	.	4a\	-ti-
!	!	!	!LO:LB:g=original	!	!	!	!	!
=77	=77	=77	=77	=77	=77	=77	=77	=77
!	!	!	!	!	!	!	!LO:N:acc=#	!
1En	-um	.	2G/|	-ti-	2e\	-um	0bn	-um
.	.	.	2A/|	-um	2f\	.	.	.
2E\	pe-	.	1.B-	pe-	2g\	pe-	.	.
2D\	.	.	.	.	2f\	.	.	.
2C/	.	.	.	.	2e\	.	1.ee	pe-
!LO:N:acc=#	!	!	!	!	!	!	!	!
!LO:TX:t=P:♮above:problem	!	!	!	!	!	!	!	!
2BBn/	.	.	4c\	.	2d\	.	.	.
.	.	.	4d\	.	.	.	.	.
=78	=78	=78	=78	=78	=78	=78	=78	=78
1.AA	-pen-	.	1.e	-pen-	1.c	-pen-	.	.
.	.	.	.	.	.	.	2dd\	.
.	.	.	.	.	.	.	2cc\	.
!LO:N:acc=n	!	!	!	!	!	!	!	!
2BB-X/	.	.	2d\	.	2d\	.	2b-\	.
1C#X	.	.	1c	-dit	1e	.	1a	-pen-
!	!	!	!	!	!LO:LB:g=original	!	!	!
=79	=79	=79	=79	=79	=79	=79	=79	=79
!	!	!	!LO:N:acc=#	!	!	!	!	!
1D,<	-dit	.	1Bn	Sae-	1f	-dit	1dd	-dit
!	!	!	!	!	!	!	!LO:N:acc=#	!
1.E	sae-	.	1.B	.	1.e	Sae-	1.bn	Sae-
2E\	-cu-	.	2B\	-cu-	2e\	-cu-	2b\	-cu-
!LO:LB:g=original	!	!	!	!	!	!	!LO:LB:g=original	!
=80	=80	=80	=80	=80	=80	=80	=80	=80
0.AA	-li	.	0.c	-li	0.e	-li	0.a	-li
=81	=81	=81	=81	=81	=81	=81	=81	=81
1F#X	sta-	.	1A	sta-	1d	sta-	1a	sta-
1F#	-te-	.	1A	-te-	1d	-te-	1a	-te-
1F#	-ra	.	1A	-ra	1d	-ra	1a	-ra
=82	=82	=82	=82	=82	=82	=82	=82	=82
!	!	!	!LO:TX:t=P:problem=♭ above	!	!	!	!	!
0G	fa-	.	0B-X	fa-	0e	fa-	0g	fa-
1G	-cta	.	1B-	-cta	1e	-cta	1g	-cta
=83	=83	=83	=83	=83	=83	=83	=83	=83
1r	.	.	1r	.	1r	.	1r	.
*	*	*	*	*	*	*ij	*	*
!LO:N:acc=#	!	!	!	!	!	!	!	!
1BBn	sta-	.	1d	sta-	1g	sta-	1g	sta-
1BB	-te-	.	1d	-te-	1f	-te-	1g	-te-
!	!	!	!LO:LB:g=original	!	!	!	!	!
=84	=84	=84	=84	=84	=84	=84	=84	=84
0C#X	-ra	.	0e	-ra	0e	-ra	0a,<	-ra
1C#	fa-	.	1e	fa-	1e	fa-	1a	fa-
=85	=85	=85	=85	=85	=85	=85	=85	=85
0D	-cta	.	1d	-cta	1f	-cta	0a	-cta
*	*	*	*	*	*	*Xij	*	*
.	.	.	1d	fa-	1f	fa-	.	.
1BB-X	cor-	.	1d	-cta	1f	-cta	1b-	cor-
=86	=86	=86	=86	=86	=86	=86	=86	=86
1.C	.	.	1.c	cor-	1.f	cor-	1.g	.
2C/	-po-	.	2c\	-po-	2e\	-po-	2g/	-po-
1F	-ris	.	1c	-ris	1f	-ris	1a	-ris
=87	=87	=87	=87	=87	=87	=87	=87	=87
1FF	tu-	.	1A	tu-	0.r	.	0.r	.
1.AA	-lit-	.	1.c	-lit-	.	.	.	.
2BB-/	-q(ue)	.	2d\	-q(ue)	.	.	.	.
!	!	!	!	!	!LO:LB:g=original	!	!	!
=88	=88	=88	=88	=88	=88	=88	=88	=88
0C	prae-	.	0e	prae-	1c	tu-	1cc	tu-
.	.	.	.	.	1.e	-lit-	1.g	-lit-
1AA	-dam	.	1c	-dam	.	.	.	.
.	.	.	.	.	2f\	-q(ue)	2a\	-q(ue)
=89	=89	=89	=89	=89	=89	=89	=89	=89
!	!	!	!LO:N:acc=#	!	!	!	!LO:N:acc=#	!
1GG	tu-	.	1Bn	tu-	1g	prae-	1bn	prae-
1.BBn	-lit-	.	1.d	-lit-	1g	-dam	1b	-dam
.	.	.	.	.	1r	.	1r	.
2C/	-q(ue)	.	2e\	-q(ue)	.	.	.	.
!LO:LB:g=original	!	!	!	!	!	!	!LO:LB:g=original	!
=90	=90	=90	=90	=90	=90	=90	=90	=90
0D	prae-	.	0f	prae-	1d	tu-	1dd	tu-
.	.	.	.	.	1.f	-lit-	1.a	-lit-
1BBn	-dam	.	1d	-dam	.	.	.	.
.	.	.	.	.	2g\	-q(ue)	2b-\	-q(ue)
=91	=91	=91	=91	=91	=91	=91	=91	=91
1AA	prae-	.	2e\	prae-	2a\	prae-	1.cc	prae-
.	.	.	2d\	.	2a\	-dam	.	.
2A\	.	.	1.c	.	1.a	prae-	.	.
2G\	.	.	.	.	.	.	2b-\	.
2F\	.	.	.	.	.	.	2a\	.
2E\	.	.	4d\	.	2g\	.	2g\	.
.	.	.	4e\	.	.	.	.	.
!	!	!	!LO:LB:g=original	!	!	!	!	!
=92	=92	=92	=92	=92	=92	=92	=92	=92
1.D	.	.	1.f	.	2f\	.	2f/	.
.	.	.	.	.	2e\	.	2g/	.
.	.	.	.	.	1.d	.	2a\	.
4E\	.	.	2e\	.	.	.	4g\	.
4F\	.	.	.	.	.	.	4a\	.
1G	.	.	2d\	.	.	.	1b-	.
.	.	.	2d\	-dam	2e\	.	.	.
=93	=93	=93	=93	=93	=93	=93	=93	=93
1D	-dam	.	0d	tar-	1.f	-dam	1a,<	-dam,
1.AA	tar-	.	.	.	.	.	1.a	tar-
.	.	.	.	.	2f\	tar-	.	.
.	.	.	1c	-ta-	2e\	.	.	.
2AA/	-ta-	.	.	.	2e\	-ta-	2a\	-ta-
=94	=94	=94	=94	=94	=94	=94	=94	=94
0.D;	-ri.	.	0.d;	-ri	0.f;	-ri	0.a;	-ri.
!	!	!	!	!	!LO:LB:g=original	!	!	!
=95||	=95||	=95||	=95||	=95||	=95||	=95||	=95||	=95||
*M3/1	*	*	*M3/1	*	*M3/1	*	*M3/1	*
1B-	6.O	.	1d	6.O	1f	6.O	1b-	6.O
1B-	Crux	.	1d	Crux	1f	Crux	1b-	Crux
1A	a-	.	1c	a-	1f	a-	1cc	a-
=96	=96	=96	=96	=96	=96	=96	=96	=96
0B-	-ve	.	0d	-ve	0f	-ve	0b-	-ve
1F	spes	.	1c	spes	1f	spes	1a	spes
!LO:LB:g=original	!	!	!	!	!	!	!LO:LB:g=original	!
=97	=97	=97	=97	=97	=97	=97	=97	=97
1.C	u-	.	1.c	u-	1.e	u-	1.g	u-
2C/	-ni-	.	2c\	-ni-	2e\	-ni-	2g\	-ni-
1C	-ca	.	1c	-ca	1e	-ca	1g	-ca
=98	=98	=98	=98	=98	=98	=98	=98	=98
1AA	hoc	.	1c#X	hoc	1e	hoc	1a	hoc
1AA	Paſ-	.	1c#	paſ-	1e	paſ-	1a	paſ-
1AA	-si-	.	1c#	-si-	1e	-si-	1a	-si-
=99	=99	=99	=99	=99	=99	=99	=99	=99
1.D	-o-	.	1.d	-o-	2f\	-o-	1.a	-o-
.	.	.	.	.	2e\	.	.	.
.	.	.	.	.	2f\	.	.	.
2E\	.	.	4c\	-nis-	2g\	.	2g\	.
.	.	.	4B-\	.	.	.	.	.
1F	.	.	1A	.	1a	.	1f	.
!	!	!	!LO:LB:g=original	!	!	!	!	!
=100	=100	=100	=100	=100	=100	=100	=100	=100
1BB-	-nis	.	1d	-nis	1g	-nis	1b-	-nis
1.C	tem-	.	1.c	tem-	1.g	tem-	1.g	tem-
2C/	-po-	.	2c\	-po-	2f\	-po-	2g/	-po-
=101	=101	=101	=101	=101	=101	=101	=101	=101
0FF	-re,	.	0c	-re	0f	-re	0a	-re
1F	pi-	.	1c	pi-	1a	pi-	1cc	pi-
!	!	!	!	!	!LO:LB:g=original	!	!	!
=102	=102	=102	=102	=102	=102	=102	=102	=102
0C#X	-js	.	0e	-js	0a	-js	0a	-js
!	!	!	!	!	!LO:SIC:v:l:s=ad-	!	!	!
1C#	ad-	.	1e	ad-	1e	cum	1a	ad-
=103	=103	=103	=103	=103	=103	=103	=103	=103
0D	-au-	.	0d	-au-	0f	au-	0a	-au-
1BB-X	-ge	.	1d	-ge	1g	-ge	1g	-ge
=104	=104	=104	=104	=104	=104	=104	=104	=104
1.AA	gra-	.	1.c#X	gra-	1.e	gra-	1.a	gra-
2AA/	-ti-	.	2c#\	-ti-	2e\	-ti-	2a\	-ti-
1AA	-am	.	2c#,<\	-am,	1e	-am	1a	-am
.	.	.	2e\	re-	.	.	.	.
!LO:LB:g=original	!	!	!	!	!	!	!	!
=105	=105	=105	=105	=105	=105	=105	=105	=105
1A	re-	.	1c	-is-	1r	.	1r	.
1F	-is-	.	2A/	-que	1a	re-	1r	.
.	.	.	2A/	de-	.	.	.	.
[2D,<\	-q(ue)	.	1.d	.	1f	-is-	1a	re-
2D\]	.	.	.	.	.	.	.	.
!	!	!	!	!	!	!	!LO:LB:g=original	!
=106	=106	=106	=106	=106	=106	=106	=106	=106
!	!	!	!	!	!	!	!LO:N:acc=#	!
1.G	de-	.	.	.	2d\	-q(ue)	1bn	-is-
.	.	.	2c\	.	2d\	de-	.	.
.	.	.	2B-\	.	1.g	.	1g	-que
2F\	.	.	2A\	.	.	.	.	.
2E\	.	.	1G	.	.	.	1b	de-
2D\	.	.	.	.	2f\	.	.	.
=107	=107	=107	=107	=107	=107	=107	=107	=107
1C	.	.	1G	.	2e\	.	1.cc	.
.	.	.	.	.	2d\	.	.	.
1C	-le	.	1G	-le	1c	.	.	.
.	.	.	.	.	.	.	2b-\	.
1C	de-	.	[1c	de-	1c	-le	2a\	.
.	.	.	.	.	.	.	2g\	.
=108	=108	=108	=108	=108	=108	=108	=108	=108
!	!	!	!LO:N:xstem:cue:vis=4	!	!	!	!	!
1.F	.	.	2c\]	.	1c	de-	2a\	.
!	!	!	!LO:LB:g=original	!	!	!	!	!
.	.	.	2B-\	.	.	.	2g\	.
.	.	.	2A\	.	1.f	.	1f	.
2E\	.	.	2G\	.	.	.	.	.
2D\	.	.	2A\	.	.	.	1f	-le
2C/	.	.	2A\	-le	2e\	.	.	.
=109	=109	=109	=109	=109	=109	=109	=109	=109
0BB-	.	.	1d	re-	2d\	.	1r	.
.	.	.	.	.	2c\	.	.	.
.	.	.	1B-	-is-	1d	.	1r	.
1FF#X	-le	.	1A	-q(ue)	1d	-le	1dd	re-
!	!	!	!	!	!LO:LB:g=original	!	!	!
=110	=110	=110	=110	=110	=110	=110	=110	=110
1.GG	de-	.	2B-\	de-	0g	de-	1b-	-is-
.	.	.	2A\	.	.	.	.	.
.	.	.	2B-\	.	.	.	2b-\	-q(ue)
2AA/	.	.	2c\	.	.	.	2b-\	de-
1BB-	.	.	1d	.	1f	-le	1b-	-le
=111	=111	=111	=111	=111	=111	=111	=111	=111
1GG	-le	.	1d	-le	1e	cri-	1b-	Cri-
0AA	crimi-	.	1d	cri-	0e	-mi-	1.a	.
.	.	.	1c#X	-mi-	.	.	.	.
.	.	.	.	.	.	.	2a\	-mi-
=112	=112	=112	=112	=112	=112	=112	=112	=112
0.D;	-na	.	0.d;	-na.	0.d;	-na	0.a	-na
!LO:LB:g=original	!	!	!	!	!	!	!LO:LB:g=original	!
=113||	=113||	=113||	=113||	=113||	=113||	=113||	=113||	=113||
*M3/1	*	*	*M3/1	*	*M3/1	*	*M3/1	*
1D	7.Te	.	1d	7.Te	1f	7.Te	1a	7.Te
1D	fons	.	1d	fons	1f	fons	1a	fons
1F	sa-	.	1c	sa-	1f	sa-	1a	sa-
=114	=114	=114	=114	=114	=114	=114	=114	=114
1.BB-	-lu-	.	1.d	-lu-	1.d	-lu-	1.f	-lu-
2AA/	.	.	2c\	.	4e\	.	4g\	.
.	.	.	.	.	4f\	.	4a\	.
1GG	.	.	1B-	-tis	1g	-tis	1b-	.
!	!	!	!LO:PB:g=original	!	!	!	!	!
=115	=115	=115	=115	=115	=115	=115	=115	=115
1AA	-tis	.	1c	Tri-	1f	Tri-	1a	-tis
1.C	Tri-	.	1.c	.	1.f	-ni-	1.g	Tri-
2C/	-ni-	.	2c\	-ni-	2e\	.	2g/	-ni-
=116	=116	=116	=116	=116	=116	=116	=116	=116
0F,<	-tas	.	0c	-tas	0f	-tas	0a	-tas
2F\	col-	.	1F	col-	2c\	col-	2.a\	col-
2F\	-lau-	.	.	.	2c\	-lau-	.	.
.	.	.	.	.	.	.	4a\	-lau-
=117	=117	=117	=117	=117	=117	=117	=117	=117
!	!	!	!	!	!	!	!LO:N:acc=#	!
1En	.	.	2G/	-lau-	2e\	.	0bn	-det
.	.	.	2A/	.	2f\	.	.	.
2E\	.	.	1.B-	-det	2g\	.	.	.
2D\	-det	.	.	.	2f\	.	.	.
(2C/	.	.	.	.	2e\	.	1.ee	.
!LO:N:acc=#	!	!	!	!	!	!	!	!
!LO:TX:t=P:♮above:problem	!	!	!	!	!	!	!	!
2BBn/)	.	.	4c\	.	2d\	.	.	.
.	.	.	4d\	.	.	.	.	.
!	!	!	!	!	!LO:PB:g=original	!	!	!
=118	=118	=118	=118	=118	=118	=118	=118	=118
1.AA	o-	.	1.e	om-	1.c	-det	.	.
.	.	.	.	.	.	.	2dd\	.
.	.	.	.	.	.	.	2cc\	.
!LO:N:acc=#	!	!	!	!	!	!	!	!
2BBn/	.	.	2d\	.	2d\	om-	2b-\	.
1C#X	-mnis	.	1c	-nis	1e	-nis	1a	om-
!LO:PB:g=original	!	!	!	!	!	!	!	!
=119	=119	=119	=119	=119	=119	=119	=119	=119
!	!	!	!LO:N:acc=#	!	!	!	!	!
1D	Spi-	.	1Bn	Spi-	1f	.	1dd	-nis
!	!	!	!	!	!	!	!LO:N:acc=#	!
1.E	.	.	1.B	.	1.e	Spi-	1.bn	Spi-
2E\	-ri-	.	2B\	-ri-	2e\	-ri-	2b\	-ri-
!	!	!	!	!	!	!	!LO:PB:g=original	!
=120	=120	=120	=120	=120	=120	=120	=120	=120
0.AA	-tus	.	0.c	-tus	0.e	-tus	0.a	-tus
=121	=121	=121	=121	=121	=121	=121	=121	=121
[1F#X	qui-	.	[1A	qui-	[1d	qui-	[1a	qui-
1F#]	.	.	1A]	.	1d]	.	1a]	.
1F#	-bus	.	1A	-bus	1d	-bus	1a	-bus
=122	=122	=122	=122	=122	=122	=122	=122	=122
0G	Cru-	.	0B-	Cru-	0e	Cru-	0g	Cru-
1G	-cis	.	1B-	-cis	1e	-cis	1g	-cis
=123	=123	=123	=123	=123	=123	=123	=123	=123
1r	.	.	1r	.	1r	.	1r	.
!LO:N:acc=#	!	!	!	!	!	!	!	!
1BBn	qui-	.	1d	qui-	1g	qui-	1g	qui-
1BB	-bus	.	1d	-bus	1f	-bus	1g	-bus
!	!	!	!LO:LB:g=original	!	!	!	!	!
=124	=124	=124	=124	=124	=124	=124	=124	=124
0C#X	Cru-	.	0e	Cru-	0e	Cru-	0a	Cru-
1C#	-cis	.	1e	-cis	1e	-cis	1a	-cis
=125	=125	=125	=125	=125	=125	=125	=125	=125
0D	.	.	1d	Cru-	1f	fa-	0a	.
.	.	.	1d	-cis	1f	-cta	.	.
1BB-X	vi-	.	1d	vi-	1f	Vi-	1b-	vi-
!	!	!	!	!	!LO:LB:g=original	!	!	!
=126	=126	=126	=126	=126	=126	=126	=126	=126
1.C	-cto-	.	1.c	-cto-	1.f	-cto-	1.g	-cto-
2C/	-ri-	.	2c\	-ri-	2e\	-ri-	2g/	-ri-
1F	-am	.	1c	-am	1f	-am	1a	-am
!LO:LB:g=original	!	!	!	!	!	!	!	!
=127	=127	=127	=127	=127	=127	=127	=127	=127
1FF	lar-	.	1A	lar-	0.r	.	0.r	.
1.AA	-gi-	.	1.c	-gi-	.	.	.	.
2BB-/	-ris	.	2d\	-ris	.	.	.	.
=128	=128	=128	=128	=128	=128	=128	=128	=128
0C	ad-	.	0e	ad-	1c	lar-	1cc	Lar-
.	.	.	.	.	1.e	-gi-	1.g	-gi-
1AA	-de	.	1c	-de	.	.	.	.
.	.	.	.	.	2f\	-ris	2a\	-ris
=129	=129	=129	=129	=129	=129	=129	=129	=129
!	!	!	!LO:N:acc=#	!	!	!	!LO:N:acc=#	!
1GG	lar-	.	1Bn	lar-	1g	ad-	1bn	ad-
!LO:N:acc=#	!	!	!	!	!	!	!	!
1.BBn	-gi-	.	1.d	-gi-	1g	-de	1b	-de
.	.	.	.	.	1r	.	1r	.
2C/	-ris	.	2e\	-ris	.	.	.	.
!	!	!	!	!	!	!	!LO:LB:g=original	!
=130	=130	=130	=130	=130	=130	=130	=130	=130
0D	ad-	.	0f	ad-	1d	lar-	1dd	lar-
.	.	.	.	.	1.f	-gi-	1.a	-gi-
1BBn	-de	.	1d	-de	.	.	.	.
.	.	.	.	.	2g\	-ris	2b-\	-ris
=131	=131	=131	=131	=131	=131	=131	=131	=131
1AA	ad-	.	2e\	ad-	2a\	ad-	1.cc	ad-
.	.	.	2d\	.	2a\	-de	.	.
2A\	.	.	1.c	.	1.a	ad-	.	.
2G\	.	.	.	.	.	.	2b-\	.
2F\	.	.	.	.	.	.	2a\	.
2E\	.	.	4d\	.	2g\	.	2g\	.
.	.	.	4e\	.	.	.	.	.
!	!	!	!LO:LB:g=original	!	!	!	!	!
=132	=132	=132	=132	=132	=132	=132	=132	=132
1.D	.	.	1.f	.	2f\	.	2f/	.
.	.	.	.	.	2e\	.	2g/	.
.	.	.	.	.	1.d	.	2a\	.
4E\	.	.	2e\	.	.	.	4g\	.
4F\	.	.	.	.	.	.	4a\	.
1G	.	.	2d\	.	.	.	1b-	.
.	.	.	2d\	-de	2e\	.	.	.
!	!	!	!	!	!LO:LB:g=original	!	!	!
=133	=133	=133	=133	=133	=133	=133	=133	=133
1D,<	-de,	.	0d	prae-	1.f	.	1a	-de
1.AA	prae-	.	.	.	.	.	1.a	prae-
.	.	.	.	.	2f\	-de	.	.
.	.	.	1c	-mi-	2e\	prae-	.	.
2AA/	-mi-	.	.	.	2e\	-mi-	2a\	-mi-
=134	=134	=134	=134	=134	=134	=134	=134	=134
0.D	-u(m)	.	0.d;	-um	0.f	-um	0.a;	-um.
=135	=135	=135	=135	=135	=135	=135	=135	=135
*M2/2	*	*	*M2/2	*	*M2/2	*	*M2/2	*
*met(c|)	*	*	*met(c|)	*	*met(c|)	*	*met(c|)	*
1G 1GG	A-	.	1d	A-	1g	A-	1b-X	A-
=136-	=136	=136	=136-	=136	=136-	=136	=136	=136
0D;	-men,	.	0d;	-men	0f#X;	-men.	0a;	-men.
=137	=137	=137	=137	=137	=137	=137	=137	=137
.	.	.	.	.	.	.	.	.
==	==	==	==	==	==	==	==	==
*-	*-	*-	*-	*-	*-	*-	*-	*-
!!!system-decoration: [(s1,s2,s3,s4)]
!!!RDF**kern: < = below
!!!RDF**kern: | = vertical stroke
!!!ENC: Marta Lawrence
!!!END: 2021-01-25
!!!ENC: Andrzej Borzym
!!!END: 2021-01-23
